assets/img/braze_icons/cloud-sun-01.svg

<svg fill="none" height="24" viewBox="0 0 24 24" width="24" xmlns="http://www.w3.org/2000/svg"><path clip-rule="evenodd" d="m11.0723 7.06571c.4487-2.86997 2.9318-5.06571 5.9277-5.06571 3.3137 0 6 2.68629 6 6 0 1.71848-.7227 3.2673-1.8786 4.3604 1.1514 1.0081 1.8786 2.4889 1.8786 4.1396 0 3.0376-2.4624 5.5-5.5 5.5h-10.5c-3.31371 0-6-2.6863-6-6 0-3.1485 2.42516-5.7306 5.50941-5.9802.99485-1.56643 2.64312-2.6797 4.56289-2.95409zm8.2007 4.22629c-.4017-.1367-.8243-.2282-1.2618-.2686-.8388-2.03362-2.6792-3.54919-4.908-3.93018.4108-1.77233 1.9995-3.09322 3.8968-3.09322 2.2091 0 4 1.79086 4 4 0 1.3636-.682 2.5691-1.727 3.292z" fill="#801ed7" fill-rule="evenodd"/></svg>

<svg width="24" height="24" viewBox="0 0 24 24" fill="none" xmlns="http://www.w3.org/2000/svg">
<path fill-rule="evenodd" clip-rule="evenodd" d="M11.0723 7.06571C11.521 4.19574 14.0041 2 17 2C20.3137 2 23 4.68629 23 8C23 9.71848 22.2773 11.2673 21.1214 12.3604C22.2728 13.3685 23 14.8493 23 16.5C23 19.5376 20.5376 22 17.5 22H7C3.68629 22 1 19.3137 1 16C1 12.8515 3.42516 10.2694 6.50941 10.0198C7.50426 8.45337 9.15253 7.3401 11.0723 7.06571ZM19.273 11.292C18.8713 11.1553 18.4487 11.0638 18.0112 11.0234C17.1724 8.98978 15.332 7.47421 13.1032 7.09322C13.514 5.32089 15.1027 4 17 4C19.2091 4 21 5.79086 21 8C21 9.3636 20.318 10.5691 19.273 11.292Z" fill="#801ED7"/>
</svg>
